X:11
T:The Hare's Paw
R:reel
Z:Julie Ross
M:C|
K:G
"The Hare's Paw"
G3B A2GA|BE~E2 GEDE|~G3A BABd|1 (3efg fg edBA:|2 (3efg fg ~e3f||
g2fg edBc|d2ed Bdef|g2fg edBd|egfg ~e3f|
g2fg edBc|d2ed BABd|e3f edBd egfa gedB||
